X: 1
T: Russisk Reinlendar
T: Russian Schottische
C: trad. North Norway
O: arr. Vidar Skrede
N: variant of the Yiddish song "Papirossen"
S: Fiddle Hell handout 2020-4-15 from Vidar Skrede
R: shottish
Z: 2021 John Chambers <jc:trillian.mit.edu>
M: C
L: 1/8
K: Em
B,2 \
| "Em"EFGA BBeB | gffe e3B |gffe "E7"eddc | "Am"cBBA A4 |\
| (AB)BA f2e2 | "Em"dccB B2(AG) | "B7"(3FGA B3 (A G)F | "Em"E2B2 e2 :|
|: f2 \
| "Em"gggg gffe | e2B2 e2B2 | "E7"eeee edcB | "Am"c2A2 c2A2 |\
| ABBA "D"f2e2 | "G"dccB "C"B2(AG) | "B7"(3FGA B3 (A G)F | "Em"E2B2 e2 :|
